X: 37870
T: Sound Of Kerrera, The
R: waltz
M: 3/4
K: Amajor
AB|c2 e2 c2|A4 Bc|d2 f2 d2|B4 a2|g3 f e2|E2 F2 G2|A2 c2 f2|e4 ed|
c2 e2 c2|A4 Bc|d2 f2 d2|B2 c2 d2|e3 f e2|d2 c2 B2|E2 F2 G2|A4||
ed|c2 e2 a2|e2 c2 e2|d2 f2 a2|f2 d2 f2|g2 b2 g2|e2 f2 =f2|e2 f2 d2|c4 ed|
c2 e2 a2|e2 c2 e2|d2 f2 a2|f2 d2 f2|g2 b2 g2|e2 f2 =f2|e2 f2 g2|a4||

